wp-expand-tabs-free/admin/img/tabs-alignment/horizontal-bottom/horizontal-left.svg

<svg width="120" height="92" viewBox="0 0 120 92" fill="none" xmlns="http://www.w3.org/2000/svg">
<rect x="1" y="1" width="118" height="90" rx="3" fill="white"/>
<path d="M40 66H39V67V74C39 74.4997 38.9979 74.7738 38.9723 74.964C38.972 74.9665 38.9716 74.9689 38.9713 74.9713C38.9689 74.9716 38.9665 74.972 38.964 74.9723C38.7738 74.9979 38.4997 75 38 75H22C21.5003 75 21.2262 74.9979 21.036 74.9723C21.0335 74.972 21.0311 74.9716 21.0287 74.9713C21.0284 74.9689 21.028 74.9665 21.0277 74.964C21.0021 74.7738 21 74.4997 21 74V18C21 17.5003 21.0021 17.2262 21.0277 17.036C21.028 17.0335 21.0284 17.0311 21.0287 17.0287C21.0311 17.0284 21.0335 17.028 21.036 17.0277C21.2262 17.0021 21.5003 17 22 17H98C98.4997 17 98.7738 17.0021 98.964 17.0277C98.9665 17.028 98.9689 17.0284 98.9713 17.0287C98.9716 17.0311 98.972 17.0335 98.9723 17.036C98.9979 17.2262 99 17.5003 99 18V65C99 65.4997 98.9979 65.7738 98.9723 65.964C98.972 65.9665 98.9716 65.9689 98.9713 65.9713C98.9689 65.9716 98.9665 65.972 98.964 65.9723C98.7738 65.9979 98.4997 66 98 66H40Z" fill="white" stroke="#8796A1" stroke-width="2"/>
<path d="M44 67C44 66.0572 44 65.5858 44.2929 65.2929C44.5858 65 45.0572 65 46 65H61C61.9428 65 62.4142 65 62.7071 65.2929C63 65.5858 63 66.0572 63 67V74C63 74.9428 63 75.4142 62.7071 75.7071C62.4142 76 61.9428 76 61 76H46C45.0572 76 44.5858 76 44.2929 75.7071C44 75.4142 44 74.9428 44 74V67Z" fill="#8796A1"/>
<path d="M67 67C67 66.0572 67 65.5858 67.2929 65.2929C67.5858 65 68.0572 65 69 65H85C85.9428 65 86.4142 65 86.7071 65.2929C87 65.5858 87 66.0572 87 67V74C87 74.9428 87 75.4142 86.7071 75.7071C86.4142 76 85.9428 76 85 76H69C68.0572 76 67.5858 76 67.2929 75.7071C67 75.4142 67 74.9428 67 74V67Z" fill="#8796A1"/>
<rect x="1" y="1" width="118" height="90" rx="3" stroke="#CCCCCC" stroke-width="2"/>
</svg>

<svg xmlns="http://www.w3.org/2000/svg" width="120" height="92" fill="none"><g fill="#fff"><rect x="1" y="1" width="118" height="90" rx="3"/><path d="M40 66h-1v1 7l-.028.964c-.198.034-.473.036-.972.036H21c-.5 0-.774-.002-.964-.028C20.002 74.774 20 74.5 20 74V17l.028-.964c.198-.034.473-.036.972-.036h78l.964.028c.034.198.036.473.036.972v48l-.028.964c-.199.034-.473.036-.972.036H40z" stroke="#8796a1" stroke-width="2"/></g><path d="M44 67c0-.943 0-1.414.293-1.707S45.057 65 46 65h15c.943 0 1.414 0 1.707.293S63 66.057 63 67v7c0 .943 0 1.414-.293 1.707S61.943 76 61 76H46c-.943 0-1.414 0-1.707-.293S44 74.943 44 74v-7zm23 0c0-.943 0-1.414.293-1.707S68.057 65 69 65h16c.943 0 1.414 0 1.707.293S87 66.057 87 67v7c0 .943 0 1.414-.293 1.707S85.943 76 85 76H69c-.943 0-1.414 0-1.707-.293S67 74.943 67 74v-7z" fill="#8796a1"/><rect x="1" y="1" width="118" height="90" rx="3" stroke="#ccc" stroke-width="2"/></svg>
